!!!OTL: MEIN ARM WIRD STARK
!!!ARE: Europa, Mitteleuropa, Deutschland
!!!SCT: B0105
!!!YEM: Copyright 1995, estate of Helmut Schaffrath.
**kern
*ICvox
*Ivox
*M4/4
*k[b-e-]
*B-:
{4f
=1
4b-
4b-
4.b-
8f
=2
4cc
4cc
4.cc}
{8cc
=3
8dd
8cc
8b-
8a
4g
4cc
=4
2f
4r}
{4f
=5
4.cc
8cc
8b-
8a
8g
8f
=6
8f
8e-
4e-
4.e-}
{8e-
=7
8d
8f
4b-
4cc
4a
=8
2b-
4r}
==
!!!AGN: Helden -, Ehren -, Gedaechtnis -, Kriegs - Lied
!!!ONB: ESAC (Essen Associative Code) Database: BOEHME
!!!AMT: simple quadruple
!!!AIN: vox
!!!EED: Helmut Schaffrath
!!!EEV: 1.0
*-
